static/img/icons/mode.svg

<svg fill="none" viewBox=".36 .74 20 20" xmlns="http://www.w3.org/2000/svg"><path d="m10.3606 1.73587v1m0 16.00003v1m9-9h-1m-16 0h-1m15.364 6.364-.707-.707m-11.314-11.31403-.707-.707m12.728 0-.707.707m-11.314 11.31403-.707.707m10.364-6.364c0 1.0608-.4214 2.0783-1.1716 2.8284-.7501.7501-1.7675 1.1716-2.8284 1.1716-1.06087 0-2.07829-.4215-2.82843-1.1716-.75015-.7501-1.17157-1.7676-1.17157-2.8284 0-1.0609.42142-2.07831 1.17157-2.82846.75014-.75014 1.76756-1.17157 2.82843-1.17157 1.0609 0 2.0783.42143 2.8284 1.17157.7502.75015 1.1716 1.76756 1.1716 2.82846z" stroke="#000" stroke-linecap="round" stroke-linejoin="round" stroke-width="2"/></svg>

<svg width="21" height="21" viewBox="0 0 21 21" fill="none" xmlns="http://www.w3.org/2000/svg">
<path d="M10.3606 1.73587V2.73587M10.3606 18.7359V19.7359M19.3606 10.7359H18.3606M2.3606 10.7359H1.3606M16.7246 17.0999L16.0176 16.3929M4.7036 5.07887L3.9966 4.37187M16.7246 4.37187L16.0176 5.07887M4.7036 16.3929L3.9966 17.0999M14.3606 10.7359C14.3606 11.7967 13.9392 12.8142 13.189 13.5643C12.4389 14.3144 11.4215 14.7359 10.3606 14.7359C9.29973 14.7359 8.28231 14.3144 7.53217 13.5643C6.78202 12.8142 6.3606 11.7967 6.3606 10.7359C6.3606 9.675 6.78202 8.65759 7.53217 7.90744C8.28231 7.1573 9.29973 6.73587 10.3606 6.73587C11.4215 6.73587 12.4389 7.1573 13.189 7.90744C13.9392 8.65759 14.3606 9.675 14.3606 10.7359Z" stroke="black" stroke-width="2" stroke-linecap="round" stroke-linejoin="round"/>
</svg>
